X: 5
T: The Lads Of Laois
R: reel
M: 4/4
L: 1/8
K: Edor
E~B,3 EGFE|D~A,3 DEFD|GEED EFGA|B/c/d ec dBAF|E2 B,E GEB,E|D2 A,D FDA,D|E/E/E BE dEBE|1 dBAF GAFG:|2 DEFA BEEB|||e~B3 egfe|defa gfed|(3Bcd ef ~g3e|dfaf gfed|e~B3 GBFB|EBBA (3Bcd ef|~g3e effe|1 dfed BA B/c/d:|2 dBAF GAFG||


Tune 58	Setting 24068

